tenants/donaldduck/icons/eye_closed.svg

<svg fill="none" height="24" viewBox="0 0 24 24" width="24" xmlns="http://www.w3.org/2000/svg"><g fill="#000"><path d="m15.4875 18.14-2.0175-2.0188c-.7802.279-1.6236.3307-2.432.149-.8084-.1816-1.54859-.5891-2.13448-1.175-.58588-.5859-.99334-1.3261-1.17498-2.1345s-.12998-1.6518.14896-2.432l-2.575-2.57495c-2.13 1.89375-3.3025 4.04625-3.3025 4.04625s3.75 6.875 10 6.875c1.2005-.0042 2.3874-.2543 3.4875-.735zm-6.975-12.28c1.10007-.48072 2.287-.73087 3.4875-.735 6.25 0 10 6.875 10 6.875s-1.1737 2.1512-3.3012 4.0475l-2.5776-2.5775c.279-.7802.3307-1.6236.149-2.432-.1816-.8084-.5891-1.54859-1.175-2.13448-.5859-.58588-1.3261-.99334-2.1345-1.17498s-1.6518-.12998-2.432.14896z"/><path d="m8.90625 11.5576c-.06876.4804-.0247.9702.1287 1.4306s.41191.8788.75506 1.2219c.34319.3432.76149.6017 1.22189.7551s.9502.1974 1.4306.1287zm6.18745.885-3.5362-3.53748c.4804-.06876.9702-.0247 1.4306.1287s.8787.41191 1.2219.75506c.3431.34312.6016.76152.755 1.22192s.1975.9502.1287 1.4306zm3.9638 7.5-15-14.99998.885-.885 15 14.99998z"/></g></svg>

<svg width="24" height="24" viewBox="0 0 24 24" fill="none" xmlns="http://www.w3.org/2000/svg">
<path d="M15.4875 18.14L13.47 16.1212C12.6898 16.4002 11.8464 16.4519 11.038 16.2702C10.2296 16.0886 9.48941 15.6811 8.90352 15.0952C8.31764 14.5093 7.91018 13.7691 7.72854 12.9607C7.5469 12.1523 7.59856 11.3089 7.8775 10.5287L5.3025 7.95375C3.1725 9.8475 2 12 2 12C2 12 5.75 18.875 12 18.875C13.2005 18.8708 14.3874 18.6207 15.4875 18.14ZM8.5125 5.86C9.61257 5.37928 10.7995 5.12913 12 5.125C18.25 5.125 22 12 22 12C22 12 20.8263 14.1512 18.6988 16.0475L16.1212 13.47C16.4002 12.6898 16.4519 11.8464 16.2702 11.038C16.0886 10.2296 15.6811 9.48941 15.0952 8.90352C14.5093 8.31764 13.7691 7.91018 12.9607 7.72854C12.1523 7.5469 11.3089 7.59856 10.5287 7.8775L8.5125 5.86Z" fill="black"/>
<path d="M8.90625 11.5576C8.83749 12.038 8.88155 12.5278 9.03495 12.9882C9.18835 13.4486 9.44686 13.867 9.79001 14.2101C10.1332 14.5533 10.5515 14.8118 11.0119 14.9652C11.4723 15.1186 11.9621 15.1626 12.4425 15.0939L8.90625 11.5576ZM15.0937 12.4426L11.5575 8.90512C12.0379 8.83636 12.5277 8.88042 12.9881 9.03382C13.4485 9.18722 13.8668 9.44573 14.21 9.78888C14.5531 10.132 14.8116 10.5504 14.965 11.0108C15.1184 11.4712 15.1625 11.961 15.0937 12.4414V12.4426ZM19.0575 19.9426L4.0575 4.94262L4.9425 4.05762L19.9425 19.0576L19.0575 19.9426Z" fill="black"/>
</svg>
